!!!COM:	Pierre de la Rue
**kern	**kern
*part2	*part1
*staff2	*staff1
*clefF4	*clefGv2
*k[]	*k[]
*M2/1	*M2/1
=1-	=1-
1D	0r
2D	.
[2G	.
=2	=2
2G]	0r
2G	.
2F	.
2D	.
=3	=3
2.E	1G
4F	.
2G	2G
[2A	[2c
=4	=4
2A]	2c]
2.G	2B
.	1A
4F	.
2F	.
=5	=5
[0G	1G
.	2r
.	[2d
=6	=6
0G]	2d]
.	2d
.	2G
.	[2G
=7	=7
2r	4G]
.	4A
1G	4B
.	4c
.	2.d
2G	.
.	4B
=8	=8
2C	4c
.	4d
2.C	1e
4D	.
4E	4d
4F	4c
=9	=9
2.G	2.B
4E	4c
4F	4d
4G	4B
[2A	4c
.	4d
=10	=10
4A]	2e
4G	.
2F	2.d
1E	.
.	4c
.	2c
=11	=11
1D	2d
.	4c
.	4B
2r	1A
[2D	.
=12	=12
2D]	2r
2D	1d
1G	.
.	2c
=13	=13
2G	2B
2F	2A
1E	2r
.	2G
=14	=14
2D	2F
2G	4E
.	4D
2G	2E
2F	2D
=15	=15
4E	1G
4D	.
2E	.
2D	2F
[2G	[2E
=16	=16
2G]	4E]
.	4D
2F	1D
1E	.
.	2C
=17	=17
1D	2D
.	2A
2r	2A
2A	[2D
=18	=18
2A	2D]
4D	2A
4E	.
4F	2A
4D	.
[2E	[2G
=19	=19
2E]	4G]
.	4F
2D	4E
.	4D
4C	1E
4BB	.
2C	.
=20	=20
2D	2D
2D	4d
.	4c
2D	4B
.	4A
[2GG	2B
=21	=21
2GG]	2B
2D	4A
.	4G
2D	4F
.	4G
[2C	4A
.	4B
=22	=22
4C]	2A
4BB	.
4AA	1G
4GG	.
1AA	.
.	2F
=23	=23
0GG	0G
==	==
*-	*-
